!!!OTL: HEIDA LUSTIG ICH BIN HANS
!!!ARE: Europa, Mitteleuropa, Deutschland
!!!SCT: F0184
!!!YEM: Copyright 1995, estate of Helmut Schaffrath.
**kern
*ICvox
*Ivox
*M2/4
*k[]
*C:
=1
{8.cc
16b
8cc
8g
=2
8a
8f
4g}
=3
{8cc
8g
8e
8c
=4
4d
4c}
=5
{8e
8d
8e
8d
=6
8e
8f
4g}
=7
{8f
8e
8f
8g
=8
4a
4g}
=9
{8b-
8g
8a
8f
=10
8g
8e
4f}
=11
{8f
8g
8a
8b
=12
4cc
4g}
=13
{8.cc
16b
8cc
8g
=14
8a
8f
4g}
=15
{8c
8d
8e
8f
=16
4g
4c}
==
!!!AGN: Scherz - Lied, Moral, Zufriedenheit
!!!ONB: ESAC (Essen Associative Code) Database: FINK
!!!AMT: simple duple
!!!AIN: vox
!!!EED: Helmut Schaffrath
!!!EEV: 1.0
*-
